app/client/src/assets/icons/blueprintjs/20px/lab-test.svg

<?xml version="1.0" encoding="UTF-8"?>
<svg viewBox="0 0 20 20" version="1.1" xmlns="http://www.w3.org/2000/svg" xmlns:xlink="http://www.w3.org/1999/xlink">
    <title>pt-icon-lab-test</title>
    <desc>Created with Sketch.</desc>
    <g id="pt-icon-lab-test" stroke="none" stroke-width="1" fill="none" fill-rule="evenodd">
        <path d="M13,2 C13.5522847,2 14,2.44771525 14,3 C14,3.55228475 13.5522847,4 13,4 L13,8 L17,16 L17,17 C17,17.5522847 16.5522847,18 16,18 L4,18 C3.44771525,18 3,17.5522847 3,17 L3,16 L7,8 L7,4 C6.44771525,4 6,3.55228475 6,3 C6,2.44771525 6.44771525,2 7,2 L13,2 Z M11,4 L9,4 L9,8 L7,12 L13,12 L11,8 L11,4 Z" id="Combined-Shape" fill="#000000"></path>
    </g>
</svg>

<svg xmlns="http://www.w3.org/2000/svg" viewBox="0 0 20 20"><path fill-rule="evenodd" d="M13 2a1 1 0 0 1 0 2v4l4 8v1a1 1 0 0 1-1 1H4a1 1 0 0 1-1-1v-1l4-8V4a1 1 0 1 1 0-2h6Zm-2 2H9v4l-2 4h6l-2-4V4Z"/></svg>
